X: 12110
T: Evan's Slip
R: slip jig
M: 9/8
K: Amajor
F2 A cBA BcA|F2 A cBA cef|ecf ecA BAF|EFA cBA B2 c|
F2 A cBA BcA|F2 A cBA cef|eaf ecA BAF|EFA cBA B2 c||
eff fec afc|eff fec fga|eff fec afc|fga gfe f2 c|
eff fec afc|eff fec fga|eff fec afc|fga gfe fcA||

